X: 46
T:Priodas Dafydd ap Rhys
T:Dafydd ap Rhys' Wedding
M:2/4
L:1/16
Q:90
S:Cadw Twmpath Collection
R:Hornpipe
A:Wales
Z:brian_martin12345@yahoo.com
K:D
dDFA dfag|fedf gecA|dDFA dfag|fBBc d2D2:||
BDGB ADFA|BABc d2A2|BDGB ADFA|Bdec d2D2:||
Bcdc Bfff|fedc d2B2|Bcdc Bfff|fedc B2b2:||
dDFA dfag|fedf gecA|dDFA dfag|fBBc d2D2:||
